static/assets/images/networks/berachain.svg

<svg xmlns="http://www.w3.org/2000/svg" fill="none" viewBox="0 0 512 512"><path fill="#fff" d="M256 512c141.385 0 256-114.615 256-256S397.385 0 256 0 0 114.615 0 256s114.615 256 256 256"/><path fill="#875426" d="M255.671 229.913q4.863 12.059 14.756 24.614 5.865 7.449 8.841 17.056 2.661 8.601 2.286 18.743-.944 25.305-17.03 46.085-4.33 5.605-9.554 8.892-12.566 7.922-27.419 9.074-16.896 1.31-32.933 1.371a4.93 4.93 0 0 0-2.951.983 64.1 64.1 0 0 1-18.965 9.656q-8.406 2.644-16.63-.401a54.6 54.6 0 0 1-12.76-6.72 34.5 34.5 0 0 0-4.039-2.487q-1.935-1.03-4.475-1.043-16.896-.134-31.204-1.201-12.567-.934-24.117-7.048-8.055-4.27-13.812-11.743-4.535-5.895-9.035-15.358-5.817-12.24-7.16-25.596-1.875-18.718 7.293-34.525.012-.036 8.37-11.755a93.8 93.8 0 0 0 10.16-18.196 2.14 2.14 0 0 0-.23-2.087q-11.636-16.389-15.615-35.641-1.729-8.346 1.294-19.47 6.532-24.031 30.757-28.144 11.563-1.965 23.149 2.633 12.857 5.095 23.766 14.193 1.706 1.431 3.834.825 22.557-6.393 47.145.146c.354.094.724.107 1.082.038a2.4 2.4 0 0 0 .986-.439q7.209-5.41 15.505-10.432 19.449-11.792 40.009-4.865 6.193 2.075 10.559 5.702a34.8 34.8 0 0 1 7.934 9.316q4.306 7.376 5.938 16.511 1.573 8.806-.689 17.905-3.217 12.846-8.152 20.877-3.495 5.677-6.809 11.464a1.26 1.26 0 0 0-.166.528c-.014.185.013.369.081.539M352.078 300.902q11.882 3.073 17.677 12.654 3.349 5.536 4.916 15.27 1.248 7.757 1.222 16.163a1.15 1.15 0 0 1-.332.795c-.21.21-.493.328-.788.328h-20.747a.79.79 0 0 1-.745-.531.8.8 0 0 1-.044-.324q.687-10.065-2.038-18.484-.459-1.43-1.312-.205-1.605 2.296-3.489 3.904a9.7 9.7 0 0 1-4.598 2.194q-7.132 1.327-11.437-5.179-.942-1.416-1.502.191a22 22 0 0 0-1.261 7.591q.05 4.796-.484 10.192a.73.73 0 0 1-.234.465.7.7 0 0 1-.479.186h-21.282a.84.84 0 0 1-.84-.816q-.293-11.495 1.948-21.623 3.732-16.878 21.333-22.529c.259-.086.484-.25.644-.47s.247-.484.247-.755v-6.506a.83.83 0 0 0-.18-.515.8.8 0 0 0-.457-.288q-11.169-2.59-17.193-11.877-4.763-7.348-5.998-18.791a82.8 82.8 0 0 1 2.267-30.298q4.215-16.01 20.899-20.921a.9.9 0 0 0 .47-.323.87.87 0 0 0 .179-.532l-.038-6.888a.82.82 0 0 0-.182-.493.9.9 0 0 0-.455-.298q-17.83-5.09-21.688-23.499a85.7 85.7 0 0 1-1.771-21.291.671.671 0 0 1 .675-.65l21.46-.077a.716.716 0 0 1 .713.663q.496 5.868.42 11.456-.051 3.75 1.554 7.093a.39.39 0 0 0 .318.227.44.44 0 0 0 .208-.028.5.5 0 0 0 .175-.123q10.15-11.213 20.326.715.878 1.033 1.235-.268 2.394-8.726 1.847-18.816a.87.87 0 0 1 .235-.647.868.868 0 0 1 .631-.272h20.822a.94.94 0 0 1 .943.931q.204 10.78-1.949 20.526-2.165 9.874-6.737 15.206-5.731 6.698-15.092 8.879a.87.87 0 0 0-.475.289.78.78 0 0 0-.187.502l-.038 6.583a.95.95 0 0 0 .202.582c.131.168.315.29.524.349q10.545 2.78 16.327 10.639 4.368 5.958 6.291 17.311 3.006 17.809-1.706 34.61-4.368 15.563-20.632 19.696c-.216.055-.408.16-.549.301a.73.73 0 0 0-.228.478l-.255 6.569a.66.66 0 0 0 .189.474c.13.142.315.25.525.305m-2.204-64.627q-1.884 3.304-5.132 4.988-3.273 1.696-6.699 1.225-4.266-.6-7.056-4.503-1.961-2.756-2.521.586-2.267 13.434.229 27.657.19 1.149 1.019.332 10.966-10.971 20.326.561.93 1.136 1.299-.28 4.012-15.27-.051-30.387-.484-1.811-1.414-.179M442.195 255.602q15.74 3.789 20.377 18.676 4.33 13.854 2.955 28.894-1.273 14.122-5.184 21.113-5.578 9.988-18.696 13.867a.67.67 0 0 0-.484.65v6.455a.827.827 0 0 1-.504.77.8.8 0 0 1-.311.059l-20.912-.191a.56.56 0 0 1-.418-.194.72.72 0 0 1-.18-.469l-.128-6.532a.8.8 0 0 0-.194-.497.93.93 0 0 0-.481-.294q-9.423-2.398-15.206-9.197-4.635-5.46-6.839-15.5-3.96-18.191.892-36.689 4.253-16.214 20.784-20.768c.371-.105.694-.329.917-.633.222-.304.33-.671.306-1.038l-.357-5.868a.88.88 0 0 0-.207-.512.96.96 0 0 0-.481-.305q-10.8-2.934-16.479-10.882-4.318-6.059-6.139-17.604-2.623-16.572 1.859-33.168 4.242-15.73 20.785-20.398c.282-.079.53-.237.703-.448.174-.211.262-.462.252-.713l-.267-6.863a.67.67 0 0 1 .154-.46.6.6 0 0 1 .186-.142.5.5 0 0 1 .22-.049h21.014a.83.83 0 0 1 .536.187.65.65 0 0 1 .241.464l.445 6.62c.015.246.083.475.195.656a.77.77 0 0 0 .429.352q10.788 3.24 16.531 11.035 4.394 5.97 6.317 17.732 2.84 17.515-1.694 33.436-4.457 15.627-20.606 20.245a1.1 1.1 0 0 0-.5.301 1.16 1.16 0 0 0-.289.516q-.994 3.711-.332 6.62a.95.95 0 0 0 .272.487c.14.136.32.232.518.279m-1.745-64.652q-10.404 11.762-20.288.65-1.044-1.173-1.413.358-3.426 14.313.178 29.366.292 1.186.942.166 5.107-7.986 15.169-4.784 1.477.472 5.616 5.103.433.484.573-.141 3.261-14.695.318-30.412-.228-1.276-1.095-.306m-1.388 119.277q.65.88.993 1.467 1.133 1.99 1.58-.268 1.222-6.365 1.248-12.566.038-7.386-.026-8.827a30.5 30.5 0 0 0-1.719-8.752q-.216-.612-.637-.114-11.156 13.356-21.001-.128-.395-.548-.548.115-3.642 15.245-.051 30.591.23 1.034.867.191 7.934-10.626 18.071-2.972.688.523 1.223 1.263"/></svg>

<svg width="512" height="512" viewBox="0 0 512 512" fill="none" xmlns="http://www.w3.org/2000/svg">
<path d="M256 512C397.385 512 512 397.385 512 256C512 114.615 397.385 0 256 0C114.615 0 0 114.615 0 256C0 397.385 114.615 512 256 512Z" fill="white"/>
<path d="M255.671 229.913C258.913 237.952 263.831 246.157 270.427 254.527C274.337 259.493 277.284 265.178 279.268 271.583C281.042 277.317 281.804 283.565 281.554 290.326C280.925 307.196 275.248 322.558 264.524 336.411C261.638 340.147 258.453 343.112 254.97 345.303C246.592 350.584 237.453 353.609 227.551 354.377C216.287 355.251 205.309 355.707 194.618 355.748C193.557 355.748 192.522 356.092 191.667 356.731C185.877 361.009 179.556 364.227 172.702 366.387C167.098 368.15 161.555 368.016 156.072 365.986C151.525 364.312 147.271 362.072 143.312 359.266C142.022 358.344 140.676 357.515 139.273 356.779C137.983 356.092 136.491 355.744 134.798 355.736C123.534 355.647 113.132 355.246 103.594 354.535C95.2161 353.912 87.1772 351.563 79.477 347.487C74.107 344.64 69.503 340.726 65.6649 335.744C62.6413 331.814 59.6297 326.694 56.6303 320.386C52.7519 312.226 50.3653 303.694 49.4703 294.79C48.2205 282.311 50.6515 270.803 56.7633 260.265C56.7714 260.241 59.5612 256.323 65.1328 248.51C69.2208 242.776 72.6072 236.711 75.2923 230.314C75.4359 229.976 75.4902 229.607 75.45 229.242C75.4097 228.876 75.2763 228.527 75.0625 228.227C67.3058 217.301 62.1011 205.421 59.4483 192.586C58.2953 187.022 58.7267 180.532 60.7424 173.116C65.0965 157.095 75.3487 147.714 91.499 144.972C99.2073 143.662 106.924 144.54 114.648 147.605C123.219 151.002 131.141 155.733 138.414 161.798C139.551 162.752 140.829 163.027 142.248 162.623C157.286 158.361 173.001 158.41 189.393 162.769C189.747 162.863 190.117 162.876 190.475 162.807C190.834 162.738 191.171 162.588 191.461 162.368C196.267 158.761 201.435 155.284 206.966 151.936C219.932 144.075 233.268 142.453 246.975 147.071C251.104 148.454 254.623 150.355 257.534 152.773C260.743 155.425 263.388 158.531 265.468 162.089C268.338 167.006 270.318 172.51 271.406 178.6C272.454 184.471 272.225 190.439 270.717 196.505C268.572 205.069 265.855 212.028 262.565 217.382C260.235 221.167 257.965 224.988 255.756 228.846C255.662 229.008 255.605 229.189 255.59 229.374C255.576 229.559 255.603 229.743 255.671 229.913Z" fill="#875426"/>
<path d="M352.078 300.902C359.999 302.951 365.892 307.169 369.755 313.556C371.988 317.247 373.626 322.337 374.671 328.826C375.503 333.997 375.91 339.385 375.893 344.989C375.89 345.288 375.77 345.574 375.561 345.784C375.351 345.994 375.068 346.112 374.773 346.112H354.026C353.918 346.112 353.811 346.09 353.712 346.047C353.613 346.003 353.523 345.939 353.449 345.859C353.375 345.779 353.318 345.684 353.281 345.581C353.245 345.477 353.23 345.367 353.237 345.257C353.695 338.547 353.016 332.386 351.199 326.773C350.893 325.82 350.456 325.752 349.887 326.568C348.817 328.099 347.654 329.4 346.398 330.472C345.048 331.62 343.515 332.352 341.8 332.666C337.045 333.551 333.233 331.824 330.363 327.487C329.735 326.543 329.234 326.607 328.861 327.678C327.995 330.136 327.574 332.666 327.6 335.269C327.634 338.466 327.472 341.864 327.116 345.461C327.097 345.64 327.014 345.806 326.882 345.926C326.75 346.047 326.579 346.113 326.403 346.112H305.121C304.903 346.112 304.693 346.027 304.536 345.874C304.379 345.722 304.287 345.514 304.281 345.296C304.086 337.633 304.735 330.425 306.229 323.673C308.717 312.421 315.828 304.911 327.562 301.144C327.821 301.058 328.046 300.894 328.206 300.674C328.366 300.454 328.453 300.19 328.453 299.919V293.413C328.452 293.225 328.389 293.044 328.273 292.898C328.158 292.752 327.997 292.65 327.816 292.61C320.37 290.883 314.639 286.924 310.623 280.733C307.448 275.834 305.448 269.571 304.625 261.942C303.512 251.702 304.268 241.603 306.892 231.644C309.702 220.971 316.668 213.997 327.791 210.723C327.979 210.668 328.144 210.554 328.261 210.4C328.378 210.246 328.441 210.059 328.44 209.868L328.402 202.98C328.398 202.802 328.334 202.629 328.22 202.487C328.105 202.345 327.946 202.24 327.765 202.189C315.879 198.795 308.649 190.963 306.077 178.69C304.599 171.674 304.009 164.577 304.306 157.399C304.313 157.224 304.387 157.059 304.513 156.937C304.639 156.816 304.807 156.748 304.981 156.749L326.441 156.672C326.622 156.672 326.796 156.74 326.928 156.863C327.06 156.986 327.141 157.155 327.154 157.335C327.485 161.248 327.625 165.066 327.574 168.791C327.54 171.291 328.058 173.656 329.128 175.884C329.156 175.946 329.2 175.999 329.255 176.039C329.311 176.079 329.376 176.103 329.446 176.111C329.516 176.119 329.587 176.109 329.654 176.083C329.721 176.056 329.781 176.014 329.829 175.96C336.595 168.485 343.371 168.723 350.155 176.675C350.74 177.364 351.152 177.274 351.39 176.407C352.986 170.59 353.602 164.318 353.237 157.591C353.23 157.472 353.247 157.354 353.287 157.243C353.328 157.132 353.39 157.03 353.472 156.944C353.553 156.858 353.65 156.789 353.759 156.743C353.868 156.696 353.985 156.672 354.103 156.672H374.925C375.173 156.672 375.411 156.77 375.587 156.944C375.764 157.118 375.865 157.355 375.868 157.603C376.004 164.79 375.354 171.632 373.919 178.129C372.476 184.712 370.23 189.78 367.182 193.335C363.361 197.8 358.331 200.76 352.09 202.214C351.903 202.257 351.735 202.359 351.615 202.503C351.494 202.646 351.429 202.823 351.428 203.005L351.39 209.588C351.39 209.797 351.461 210.001 351.592 210.17C351.723 210.338 351.907 210.46 352.116 210.519C359.146 212.373 364.588 215.919 368.443 221.158C371.355 225.13 373.452 230.9 374.734 238.469C376.738 250.342 376.169 261.878 373.028 273.079C370.116 283.454 363.238 290.02 352.396 292.775C352.18 292.83 351.988 292.935 351.847 293.076C351.707 293.216 351.627 293.384 351.619 293.554L351.364 300.123C351.357 300.288 351.423 300.456 351.553 300.597C351.683 300.739 351.868 300.847 352.078 300.902ZM349.874 236.275C348.618 238.478 346.907 240.14 344.742 241.263C342.56 242.394 340.327 242.802 338.043 242.488C335.199 242.088 332.847 240.587 330.987 237.985C329.68 236.148 328.839 236.343 328.466 238.571C326.955 247.527 327.031 256.746 328.695 266.228C328.822 266.994 329.162 267.104 329.714 266.56C337.024 259.246 343.8 259.433 350.04 267.121C350.66 267.878 351.093 267.785 351.339 266.841C354.014 256.661 353.997 246.532 351.288 236.454C350.965 235.246 350.494 235.187 349.874 236.275Z" fill="#875426"/>
<path d="M442.195 255.602C452.689 258.128 459.481 264.353 462.572 274.278C465.459 283.514 466.444 293.145 465.527 303.172C464.678 312.587 462.95 319.624 460.343 324.285C456.624 330.944 450.393 335.566 441.647 338.152C441.507 338.193 441.384 338.279 441.297 338.396C441.21 338.514 441.163 338.656 441.163 338.802V345.257C441.163 345.367 441.142 345.476 441.101 345.578C441.06 345.679 441 345.771 440.924 345.848C440.848 345.925 440.758 345.986 440.659 346.027C440.56 346.068 440.455 346.088 440.348 346.086L419.436 345.895C419.28 345.895 419.13 345.825 419.018 345.701C418.906 345.577 418.841 345.409 418.838 345.232L418.71 338.7C418.707 338.521 418.638 338.346 418.516 338.203C418.394 338.06 418.225 337.957 418.035 337.909C411.753 336.31 406.684 333.245 402.829 328.712C399.739 325.072 397.459 319.905 395.99 313.212C393.35 301.084 393.647 288.855 396.882 276.523C399.717 265.714 406.646 258.791 417.666 255.755C418.037 255.65 418.36 255.426 418.583 255.122C418.805 254.818 418.913 254.451 418.889 254.084L418.532 248.216C418.521 248.029 418.448 247.851 418.325 247.704C418.201 247.558 418.034 247.451 417.844 247.399C410.645 245.443 405.151 241.816 401.365 236.517C398.486 232.478 396.44 226.61 395.226 218.913C393.477 207.865 394.097 196.809 397.085 185.745C399.913 175.259 406.841 168.459 417.87 165.347C418.152 165.268 418.4 165.11 418.573 164.899C418.747 164.688 418.835 164.437 418.825 164.186L418.558 157.323C418.554 157.238 418.566 157.154 418.593 157.075C418.619 156.996 418.66 156.924 418.712 156.863C418.765 156.802 418.828 156.754 418.898 156.721C418.967 156.688 419.042 156.672 419.118 156.672H440.132C440.331 156.671 440.523 156.737 440.668 156.859C440.813 156.98 440.899 157.146 440.909 157.323L441.354 163.943C441.369 164.189 441.437 164.418 441.549 164.599C441.661 164.78 441.811 164.903 441.978 164.951C449.17 167.111 454.68 170.79 458.509 175.986C461.439 179.966 463.544 185.877 464.826 193.718C466.72 205.395 466.155 216.54 463.132 227.154C460.161 237.572 453.292 244.32 442.526 247.399C442.337 247.453 442.164 247.557 442.026 247.7C441.887 247.843 441.788 248.021 441.737 248.216C441.074 250.69 440.964 252.897 441.405 254.836C441.443 255.019 441.537 255.187 441.677 255.323C441.817 255.459 441.997 255.555 442.195 255.602ZM440.45 190.95C433.514 198.791 426.751 199.008 420.162 191.6C419.466 190.818 418.995 190.937 418.749 191.958C416.465 201.5 416.524 211.289 418.927 221.324C419.122 222.115 419.436 222.17 419.869 221.49C423.274 216.166 428.33 214.571 435.038 216.706C436.022 217.021 437.895 218.722 440.654 221.809C440.943 222.132 441.134 222.085 441.227 221.668C443.401 211.871 443.507 201.734 441.545 191.256C441.393 190.406 441.028 190.303 440.45 190.95ZM439.062 310.227C439.495 310.814 439.826 311.303 440.055 311.694C440.811 313.021 441.337 312.931 441.635 311.426C442.45 307.182 442.866 302.994 442.883 298.86C442.908 293.936 442.9 290.994 442.857 290.033C442.713 287.031 442.14 284.113 441.138 281.281C440.994 280.873 440.781 280.835 440.501 281.167C433.064 290.071 426.063 290.028 419.5 281.039C419.237 280.673 419.054 280.712 418.952 281.154C416.524 291.317 416.507 301.514 418.901 311.745C419.054 312.434 419.343 312.498 419.768 311.936C425.057 304.852 431.081 303.861 437.839 308.964C438.298 309.313 438.705 309.734 439.062 310.227Z" fill="#875426"/>
</svg>
